Resources/Public/Backend/Icons/ctype/denacharts_chart_column.svg

<svg xmlns="http://www.w3.org/2000/svg" width="16" height="16" viewBox="0 0 16 16"><path d="M14.071,5.53h.693A1.236,1.236,0,0,1,16,6.767v8A1.235,1.235,0,0,1,14.764,16h-.693a1.236,1.236,0,0,1-1.238-1.235v-8A1.238,1.238,0,0,1,14.071,5.53Z"/><path d="M9.817,2.678h.693a1.237,1.237,0,0,1,1.237,1.237V14.764A1.236,1.236,0,0,1,10.51,16H9.817a1.235,1.235,0,0,1-1.236-1.236V3.915A1.236,1.236,0,0,1,9.817,2.678Z"/><path d="M1.236,0H1.93A1.235,1.235,0,0,1,3.165,1.235v13.52A1.236,1.236,0,0,1,1.93,15.992H1.236A1.236,1.236,0,0,1,0,14.755V1.235A1.237,1.237,0,0,1,1.236,0Z"/><path d="M5.549,6.684h.693A1.237,1.237,0,0,1,7.48,7.921v6.844A1.236,1.236,0,0,1,6.242,16H5.549a1.235,1.235,0,0,1-1.236-1.235V7.921A1.236,1.236,0,0,1,5.549,6.684Z"/></svg>

<svg viewBox="0 0 16 16" xmlns="http://www.w3.org/2000/svg"><path d="m14.07 5.53h.69a1.23 1.23 0 0 1 1.24 1.24v8a1.23 1.23 0 0 1 -1.24 1.23h-.69a1.24 1.24 0 0 1 -1.24-1.23v-8a1.24 1.24 0 0 1 1.24-1.24z"/><path d="m9.82 2.68h.69a1.24 1.24 0 0 1 1.24 1.23v10.85a1.24 1.24 0 0 1 -1.24 1.24h-.69a1.23 1.23 0 0 1 -1.24-1.24v-10.85a1.23 1.23 0 0 1 1.24-1.23z"/><path d="m1.24 0h.69a1.23 1.23 0 0 1 1.23 1.24v13.52a1.23 1.23 0 0 1 -1.23 1.24h-.69a1.23 1.23 0 0 1 -1.24-1.24v-13.52a1.23 1.23 0 0 1 1.24-1.24z"/><path d="m5.55 6.68h.69a1.24 1.24 0 0 1 1.24 1.24v6.85a1.23 1.23 0 0 1 -1.24 1.23h-.69a1.24 1.24 0 0 1 -1.24-1.23v-6.85a1.25 1.25 0 0 1 1.24-1.24z"/></svg>
